X:094 
T:Jimmy Doyle's Favorite* (polka)  
B:CRE3.074 (gan ainm)
F:file ID: cre.3/094jimmy_d
R:polka
Q:120
M:2/4
L:1/8
K:G
G>A| Bd d>e|dB B/A/B/c/|dB AB|dB G>A|
Bd d>e|dB B/A/B/c/|dG BA|1 B/A/G :|2 B/A/G G2||
|:dg ga/g/|fe e/f/g/e/|ed d/^c/d/f/|ed B>d|
dg ga/g/|fe e/f/g/e/|dB BA|1 B/A/G G2:|\
[2 B/A/G HG2||

%%%

